X: 7321
T: Clicking Chickens, The
R: reel
M: 4/4
K: Dmajor
|:A3B AF~F2|AFEF AFDF|AFBF AF~F2|AFEF DEFG|
A3B AF~F2|AFEF AFDE|DEFG AFBF|AFEF DEFB:|
|:Ad~d2 Adcd|Be~e2 Bede|~f3e dAFA|BdAF EFDF|
Ad~d2 fdcd|Be~e2 gece|abag fdcA|(3Bcd AF EFDF:|

